Yaru++/mimetypes/48/text-x-arduino.svg

<svg height="48" viewBox="0 0 12.7 12.7" width="48" xmlns="http://www.w3.org/2000/svg" xmlns:xlink="http://www.w3.org/1999/xlink"><linearGradient id="a" gradientTransform="matrix(.27048312 0 0 .25881223 -86.554207 -15.658136)" gradientUnits="userSpaceOnUse" x1="344" x2="344" y1="62" y2="106"><stop offset="0" stop-color="#fff"/><stop offset=".125" stop-color="#fff" stop-opacity=".098039"/><stop offset=".92500001" stop-color="#fff" stop-opacity=".098039"/><stop offset="1" stop-color="#fff" stop-opacity=".498039"/></linearGradient><g enable-background="new" fill="#888" stroke-width=".048884" transform="scale(.97818798 1.0222984)"><path d="m4.255218.38822274c-.601257-.0087634-1.0748134.013246-1.4644119.0758239-.3896012.0625767-.7084088.1799519-.9419385.4028775-.233527.22292576-.3567835.52783996-.4215723.90078786-.0647888.3729482-.0774366.8269934-.0744884 1.4037531v3.1694389 3.1709551c-.00292.5758739.00976 1.0296889.074488 1.4022359.064789.372949.1880453.677863.4215723.900788.2335297.222926.5523373.340302.9419385.402878.3896012.06258.8630846.07582 1.4644119.07582h4.4735364c.6013273 0 1.0745648-.01323 1.463357-.07582.388793-.0626.706626-.180377.939293-.403382.23267-.223006.355198-.527703.420517-.900284.06532-.372578.07924-.825702.07924-1.4022359v-3.1709551-3.1057468l-2.9024066-2.78172596z" fill="#000" opacity=".1"/><path d="m4.1933449.25881714c-2.4530006 0-2.7169407.2399057-2.7049177 2.58034076v3.2429344 3.2429348c-.012037 2.3404339.2519171 2.5803399 2.7049177 2.5803399h4.5976639c2.4530002 0 2.7049172-.239878 2.7049172-2.5803399v-3.2429348l-.000187-3.1763319-2.7798595-2.64694326z" fill="#0ca1a6"/><g fill="#fff"><path d="m336.88281 80c-3.81359 0-6.88281 3.147201-6.88281 7 0 3.8528 3.10842 7 6.88281 7 .3528 0 .70775-.04199 1.06055-.08398 2.9484-.456398 4.91704-2.693824 6.05664-4.390625 1.1004 1.7388 3.06904 3.976225 6.05664 4.390625.3528.041989.70775.08398 1.06055.08398 3.77439 0 6.88281-3.105201 6.88281-7 0-3.852799-3.10842-7-6.88281-7-.3528 0-.70775.04199-1.06055.08398-2.9484.456399-4.91704 2.693824-6.05664 4.390625-1.1004-1.699598-3.10824-3.976225-6.05664-4.390625-.3528-.041989-.70775-.08398-1.06055-.08398zm13.94531 2.144531c.76603-.01744 1.54897.03665 2.2461.384766 1.64794.687279 2.82279 2.345992 2.90039 4.132812.15948 1.873792-.87494 3.779916-2.55859 4.63086-.96162.560892-2.10449.62706-3.1875.521484-2.02272-.351731-3.59751-1.914275-4.64454-3.597656-.21347-.432012-.66071-.838161-.5996-1.351563.45585-1.024663 1.13435-1.951512 1.89648-2.771484 1.03854-1.050547 2.41714-1.968179 3.94726-1.949219zm-14.07031.0059c.47582-.0031.9583.0091 1.42383.117187 1.86852.518914 3.30212 1.985666 4.29492 3.595703.20204.41365.62763.803605.54883 1.28711-.72788 1.475391-1.75857 2.839996-3.12109 3.783203-.9889.711599-2.22454 1.04342-3.4375.914062-2.41846-.128655-4.49418-2.359904-4.45508-4.78125-.12447-2.562721 2.1789-4.958065 4.74609-4.916015z" opacity=".7" stroke-width="2.476412" transform="matrix(.27048311 0 0 .25881224 -86.554203 -15.399324)"/><path d="m8.1148849 6.340904v.5176245h-.5409662v.5176245h.5409662v.5176244h.5409662v-.5176244h.5409663v-.5176245h-.5409663v-.5176245z"/><path d="m3.787155 6.858529h1.622899v.517625h-1.622899z"/></g><path d="m4.255218.12941044c-.6013273 0-1.0748134.013246-1.4644119.075824-.3896012.062577-.7084088.1799519-.9419385.4028775-.233527.2229258-.3567835.52783996-.4215723.90078786-.064789.3729482-.077437.8269933-.074488 1.403753v3.169439 3.1709553c-.00292.575874.00976 1.0296889.074488 1.4022359.064789.372948.1880453.677863.4215723.900788.2335297.222925.5523373.340302.9419385.402878.3896012.06258.8630846.07582 1.4644119.07582h4.4735364c.6013273 0 1.0745648-.01323 1.4633566-.07582.388793-.06261.706626-.180377.939293-.403383.23267-.223005.355198-.527702.420517-.900283.06532-.372578.07924-.8257019.07924-1.4022359v-3.1709553-3.2129111l-2.8633136-2.73977026zm0 .2588123h4.4006331l2.7048309 2.58812226v3.1057468 3.1709553c0 2.2884499-.245136 2.5229139-2.6319276 2.5229139h-4.4735364c-2.3867918 0-2.6436399-.23449-2.6319279-2.5229139v-3.1709553-3.1709553c-.0116984-2.28842556.2451361-2.52291376 2.6319279-2.52291376z" fill="#000" opacity=".4"/><path d="m4.255218.38822274c-2.3867918 0-2.6436263.2344882-2.6319279 2.52291376v3.1709553 3.1709553c-.011712 2.2884239.2451361 2.5229139 2.6319279 2.5229139h4.4735364c2.3867916 0 2.6319276-.234464 2.6319276-2.5229139v-3.1709553-3.1057468h-.270483v3.1057468 3.1709553c0 .567692-.01661 1.0017829-.07185 1.3168069-.05523.315026-.142996.498043-.269956.619736-.126959.121681-.317644.205919-.646095.258813-.3284528.05288-.7814792.06874-1.3735479.06874h-4.4735321c-.5920687 0-1.045658-.01584-1.3751335-.06874-.3294728-.052925-.5216998-.137041-.649265-.258813-.1275626-.121779-.2152938-.304575-.269953-.619229-.0546619-.314653-.0699983-.7488499-.0670933-1.3163029v-.000518-3.1714483-3.1714608-.0005176c-.0028942-.5674531.0124422-1.0016487.0670933-1.316303.0546619-.3146543.1423904-.4974573.269953-.61922836.1275625-.1217712.3203223-.2058929.6497951-.2588123.3294728-.052895.7825347-.0687348 1.3746034-.0687348h4.4006331v-.2588122z" fill="url(#a)" opacity=".4"/><path d="m11.360682 3.2351572v-.2588122l-2.7048309-2.58812226h-.2704831v1.08935456.041739.022418c0 1.4731541.2060973 1.700311 1.749214 1.6930909z" fill="#076164" opacity=".6"/><path d="m11.360682 2.9760137-2.7048309-2.58779156v.95991956.041739.022418c0 1.473154.070953 1.5709343 1.6140699 1.5637142z" fill="#64c3c6"/></g></svg>

<?xml version="1.0" encoding="UTF-8" standalone="no"?>
<svg
   xmlns:dc="http://purl.org/dc/elements/1.1/"
   xmlns:cc="http://creativecommons.org/ns#"
   xmlns:rdf="http://www.w3.org/1999/02/22-rdf-syntax-ns#"
   xmlns:svg="http://www.w3.org/2000/svg"
   xmlns="http://www.w3.org/2000/svg"
   xmlns:xlink="http://www.w3.org/1999/xlink"
   xmlns:sodipodi="http://sodipodi.sourceforge.net/DTD/sodipodi-0.dtd"
   xmlns:inkscape="http://www.inkscape.org/namespaces/inkscape"
   height="48"
   viewBox="0 0 12.7 12.7"
   width="48"
   version="1.1"
   id="svg35"
   sodipodi:docname="text-x-arduino.svg"
   inkscape:version="0.92.5 (2060ec1f9f, 2020-04-08)">
  <metadata
     id="metadata41">
    <rdf:RDF>
      <cc:Work
         rdf:about="">
        <dc:format>image/svg+xml</dc:format>
        <dc:type
           rdf:resource="http://purl.org/dc/dcmitype/StillImage" />
        <dc:title />
      </cc:Work>
    </rdf:RDF>
  </metadata>
  <defs
     id="defs39">
    <clipPath
       clipPathUnits="userSpaceOnUse"
       id="clipPath994">
      <path
         style="color:#000000;display:inline;overflow:visible;visibility:visible;fill:#cdcdcd;fill-opacity:1;fill-rule:nonzero;stroke:none;stroke-width:2;stroke-miterlimit:4;stroke-dasharray:none;stroke-opacity:1;marker:none;enable-background:accumulate"
         d="m 335.73108,62 c -8.82418,0 -9.77365,0.90635 -9.7304,9.74838 V 84 96.25162 c -0.0433,8.84203 0.90622,9.74838 9.7304,9.74838 h 16.53919 c 8.82418,0 9.7304,-0.90625 9.7304,-9.74838 V 84 71.74838 C 362.00067,62.90625 361.09445,62 352.27027,62 Z"
         id="path996"
         inkscape:connector-curvature="0"
         sodipodi:nodetypes="scccssscsss" />
    </clipPath>
    <clipPath
       clipPathUnits="userSpaceOnUse"
       id="clipPath994-3">
      <path
         style="color:#000000;display:inline;overflow:visible;visibility:visible;fill:#cdcdcd;fill-opacity:1;fill-rule:nonzero;stroke:none;stroke-width:2;stroke-miterlimit:4;stroke-dasharray:none;stroke-opacity:1;marker:none;enable-background:accumulate"
         d="m 335.73108,62 c -8.82418,0 -9.77365,0.90635 -9.7304,9.74838 V 84 96.25162 c -0.0433,8.84203 0.90622,9.74838 9.7304,9.74838 h 16.53919 c 8.82418,0 9.7304,-0.90625 9.7304,-9.74838 V 84 71.74838 C 362.00067,62.90625 361.09445,62 352.27027,62 Z"
         id="path996-6"
         inkscape:connector-curvature="0"
         sodipodi:nodetypes="scccssscsss" />
    </clipPath>
    <clipPath
       clipPathUnits="userSpaceOnUse"
       id="clipPath994-36">
      <path
         style="color:#000000;display:inline;overflow:visible;visibility:visible;fill:#cdcdcd;fill-opacity:1;fill-rule:nonzero;stroke:none;stroke-width:2;stroke-miterlimit:4;stroke-dasharray:none;stroke-opacity:1;marker:none;enable-background:accumulate"
         d="m 335.73108,62 c -8.82418,0 -9.77365,0.90635 -9.7304,9.74838 V 84 96.25162 c -0.0433,8.84203 0.90622,9.74838 9.7304,9.74838 h 16.53919 c 8.82418,0 9.7304,-0.90625 9.7304,-9.74838 V 84 71.74838 C 362.00067,62.90625 361.09445,62 352.27027,62 Z"
         id="path996-7"
         inkscape:connector-curvature="0"
         sodipodi:nodetypes="scccssscsss" />
    </clipPath>
    <clipPath
       clipPathUnits="userSpaceOnUse"
       id="clipPath994-35">
      <path
         style="color:#000000;display:inline;overflow:visible;visibility:visible;fill:#cdcdcd;fill-opacity:1;fill-rule:nonzero;stroke:none;stroke-width:2;stroke-miterlimit:4;stroke-dasharray:none;stroke-opacity:1;marker:none;enable-background:accumulate"
         d="m 335.73108,62 c -8.82418,0 -9.77365,0.90635 -9.7304,9.74838 V 84 96.25162 c -0.0433,8.84203 0.90622,9.74838 9.7304,9.74838 h 16.53919 c 8.82418,0 9.7304,-0.90625 9.7304,-9.74838 V 84 71.74838 C 362.00067,62.90625 361.09445,62 352.27027,62 Z"
         id="path996-62"
         inkscape:connector-curvature="0"
         sodipodi:nodetypes="scccssscsss" />
    </clipPath>
    <linearGradient
       gradientTransform="matrix(0.27048312,0,0,0.25881223,-86.554207,-15.658136)"
       inkscape:collect="always"
       xlink:href="#linearGradient927"
       id="linearGradient1004"
       x1="344"
       y1="62"
       x2="344"
       y2="106"
       gradientUnits="userSpaceOnUse" />
    <linearGradient
       inkscape:collect="always"
       id="linearGradient927">
      <stop
         style="stop-color:#ffffff;stop-opacity:1;"
         offset="0"
         id="stop923" />
      <stop
         id="stop933"
         offset="0.125"
         style="stop-color:#ffffff;stop-opacity:0.09803922" />
      <stop
         id="stop931"
         offset="0.92500001"
         style="stop-color:#ffffff;stop-opacity:0.09803922" />
      <stop
         style="stop-color:#ffffff;stop-opacity:0.49803922"
         offset="1"
         id="stop925" />
    </linearGradient>
  </defs>
  <sodipodi:namedview
     pagecolor="#ffffff"
     bordercolor="#666666"
     borderopacity="1"
     objecttolerance="10"
     gridtolerance="10"
     guidetolerance="10"
     inkscape:pageopacity="0"
     inkscape:pageshadow="2"
     inkscape:window-width="1920"
     inkscape:window-height="1024"
     id="namedview37"
     showgrid="false"
     inkscape:zoom="4.9166667"
     inkscape:cx="-11.320634"
     inkscape:cy="24"
     inkscape:window-x="0"
     inkscape:window-y="28"
     inkscape:window-maximized="1"
     inkscape:current-layer="text130-3" />
  <linearGradient
     id="a"
     gradientUnits="userSpaceOnUse"
     x1="344"
     x2="344"
     y1="62"
     y2="106">
    <stop
       offset="0"
       stop-color="#fff"
       id="stop2" />
    <stop
       offset=".125"
       stop-color="#fff"
       stop-opacity=".098039"
       id="stop4" />
    <stop
       offset=".92500001"
       stop-color="#fff"
       stop-opacity=".098039"
       id="stop6" />
    <stop
       offset="1"
       stop-color="#fff"
       stop-opacity=".498039"
       id="stop8" />
  </linearGradient>
  <clipPath
     id="b">
    <path
       d="m335.73108 62c-8.82418 0-9.77365.90635-9.7304 9.74838v12.25162 12.25162c-.0433 8.84203.90622 9.74838 9.7304 9.74838h16.53919c8.82418 0 9.7304-.90625 9.7304-9.74838v-12.25162-12.25162c0-8.84213-.90622-9.74838-9.7304-9.74838z"
       id="path11" />
  </clipPath>
  <linearGradient
     id="c"
     gradientTransform="matrix(0 -.02997233 .02997147 0 -3.039659 297.92607)"
     gradientUnits="userSpaceOnUse"
     x1="459.03448"
     x2="35.310345"
     y1="419.23337"
     y2="207.36522">
    <stop
       offset="0"
       stop-color="#f2f2f2"
       id="stop14" />
    <stop
       offset="1"
       stop-color="#f9f9f9"
       id="stop16" />
  </linearGradient>
  <g
     aria-label="iso"
     transform="scale(0.97818798,1.0222984)"
     style="font-style:normal;font-weight:normal;font-size:1.99897027px;line-height:1.25;font-family:sans-serif;letter-spacing:0px;word-spacing:0px;display:inline;opacity:1;fill:#888888;fill-opacity:1;stroke:none;stroke-width:0.04888422;enable-background:new"
     id="text130-3">
    <flowRoot
       xml:space="preserve"
       id="flowRoot930"
       style="fill:black;fill-opacity:1;stroke:none;font-family:sans-serif;font-style:normal;font-weight:normal;font-size:40px;line-height:1.25;letter-spacing:0px;word-spacing:0px"><flowRegion
         id="flowRegion932"><rect
           id="rect934"
           width="115.11864"
           height="97.220337"
           x="-21.152542"
           y="-27.864407" /></flowRegion><flowPara
         id="flowPara936" /></flowRoot>    <path
       style="color:#000000;font-style:normal;font-variant:normal;font-weight:normal;font-stretch:normal;font-size:medium;line-height:normal;font-family:sans-serif;font-variant-ligatures:normal;font-variant-position:normal;font-variant-caps:normal;font-variant-numeric:normal;font-variant-alternates:normal;font-feature-settings:normal;text-indent:0;text-align:start;text-decoration:none;text-decoration-line:none;text-decoration-style:solid;text-decoration-color:#000000;letter-spacing:normal;word-spacing:normal;text-transform:none;writing-mode:lr-tb;direction:ltr;text-orientation:mixed;dominant-baseline:auto;baseline-shift:baseline;text-anchor:start;white-space:normal;shape-padding:0;clip-rule:nonzero;display:inline;overflow:visible;visibility:visible;opacity:0.1;isolation:auto;mix-blend-mode:normal;color-interpolation:sRGB;color-interpolation-filters:linearRGB;solid-color:#000000;solid-opacity:1;vector-effect:none;fill:#000000;fill-opacity:1;fill-rule:nonzero;stroke:none;stroke-width:0.52916664;stroke-linecap:butt;stroke-linejoin:miter;stroke-miterlimit:4;stroke-dasharray:none;stroke-dashoffset:0;stroke-opacity:1;marker:none;color-rendering:auto;image-rendering:auto;shape-rendering:auto;text-rendering:auto;enable-background:accumulate"
       d="M 4.255218,0.38822274 C 3.653961,0.37945934 3.1804046,0.40146874 2.7908061,0.46404664 2.4012049,0.52662334 2.0823973,0.64399854 1.8488676,0.86692414 1.6153406,1.0898499 1.4920841,1.3947641 1.4272953,1.767712 1.3625065,2.1406602 1.3498587,2.5947054 1.3528069,3.1714651 V 6.340904 9.5118591 c -0.00292,0.5758739 0.00976,1.0296889 0.074488,1.4022359 0.064789,0.372949 0.1880453,0.677863 0.4215723,0.900788 0.2335297,0.222926 0.5523373,0.340302 0.9419385,0.402878 0.3896012,0.06258 0.8630846,0.07582 1.4644119,0.07582 H 8.728754 c 0.6013273,0 1.0745648,-0.01323 1.463357,-0.07582 0.388793,-0.0626 0.706626,-0.180377 0.939293,-0.403382 0.23267,-0.223006 0.355198,-0.527703 0.420517,-0.900284 0.06532,-0.372578 0.07924,-0.825702 0.07924,-1.4022359 V 6.340904 3.2351572 L 8.7287544,0.45343124 Z"
       id="path1020"
       inkscape:connector-curvature="0"
       sodipodi:nodetypes="sccsccccccsscccscccs" />
    <path
       style="color:#000000;display:inline;overflow:visible;visibility:visible;fill:#0ca1a6;fill-opacity:1;fill-rule:nonzero;stroke:none;stroke-width:0.26458332;marker:none;enable-background:accumulate"
       d="m 4.1933449,0.25881714 c -2.4530006,0 -2.7169407,0.2399057 -2.7049177,2.58034076 v 3.2429344 3.2429348 c -0.012037,2.3404339 0.2519171,2.5803399 2.7049177,2.5803399 h 4.5976639 c 2.4530002,0 2.7049172,-0.239878 2.7049172,-2.5803399 V 6.0820923 L 11.495739,2.9057604 8.7158795,0.25881714 Z"
       id="path964"
       inkscape:connector-curvature="0"
       sodipodi:nodetypes="scccssscccs" />
    <g
       transform="matrix(0.30582663,0,0,0.29263074,-98.721315,-17.463641)"
       style="display:inline;stroke-width:0.88443285;enable-background:new"
       id="g40787">
      <path
         style="opacity:0.7;fill:#ffffff;stroke-width:2.47641158"
         d="M 336.88281,80 C 333.06922,80 330,83.147201 330,87 c 0,3.8528 3.10842,7 6.88281,7 0.3528,0 0.70775,-0.04199 1.06055,-0.08398 2.9484,-0.456398 4.91704,-2.693824 6.05664,-4.390625 1.1004,1.7388 3.06904,3.976225 6.05664,4.390625 C 350.40944,93.958009 350.76439,94 351.11719,94 354.89158,94 358,90.894799 358,87 c 0,-3.852799 -3.10842,-7 -6.88281,-7 -0.3528,0 -0.70775,0.04199 -1.06055,0.08398 -2.9484,0.456399 -4.91704,2.693824 -6.05664,4.390625 -1.1004,-1.699598 -3.10824,-3.976225 -6.05664,-4.390625 C 337.59056,80.041991 337.23561,80 336.88281,80 Z m 13.94531,2.144531 c 0.76603,-0.01744 1.54897,0.03665 2.2461,0.384766 1.64794,0.687279 2.82279,2.345992 2.90039,4.132812 0.15948,1.873792 -0.87494,3.779916 -2.55859,4.63086 -0.96162,0.560892 -2.10449,0.62706 -3.1875,0.521484 -2.02272,-0.351731 -3.59751,-1.914275 -4.64454,-3.597656 -0.21347,-0.432012 -0.66071,-0.838161 -0.5996,-1.351563 0.45585,-1.024663 1.13435,-1.951512 1.89648,-2.771484 1.03854,-1.050547 2.41714,-1.968179 3.94726,-1.949219 z m -14.07031,0.0059 c 0.47582,-0.0031 0.9583,0.0091 1.42383,0.117187 1.86852,0.518914 3.30212,1.985666 4.29492,3.595703 0.20204,0.41365 0.62763,0.803605 0.54883,1.28711 -0.72788,1.475391 -1.75857,2.839996 -3.12109,3.783203 -0.9889,0.711599 -2.22454,1.04342 -3.4375,0.914062 -2.41846,-0.128655 -4.49418,-2.359904 -4.45508,-4.78125 -0.12447,-2.562721 2.1789,-4.958065 4.74609,-4.916015 z"
         transform="matrix(0.88443284,0,0,0.88443284,39.784343,7.0543419)"
         id="path8-6-5"
         inkscape:connector-curvature="0" />
    </g>
    <path
       style="display:inline;opacity:1;fill:#ffffff;fill-opacity:1;stroke:none;stroke-width:2.398;stroke-linecap:round;stroke-linejoin:round;stroke-miterlimit:4;stroke-dasharray:none;stroke-opacity:1;enable-background:new"
       d="M 8.1148849,6.340904 V 6.8585285 H 7.5739187 V 7.376153 H 8.1148849 V 7.8937774 H 8.6558511 V 7.376153 H 9.1968174 V 6.8585285 H 8.6558511 V 6.340904 Z"
       id="rect41610"
       inkscape:connector-curvature="0" />
    <rect
       style="display:inline;opacity:1;fill:#ffffff;fill-opacity:1;stroke:none;stroke-width:2.398;stroke-linecap:round;stroke-linejoin:round;stroke-miterlimit:4;stroke-dasharray:none;stroke-opacity:1;enable-background:new"
       id="rect41614"
       width="1.6228987"
       height="0.5176245"
       x="3.7871552"
       y="6.8585286" />
    <path
       style="color:#000000;font-style:normal;font-variant:normal;font-weight:normal;font-stretch:normal;font-size:medium;line-height:normal;font-family:sans-serif;font-variant-ligatures:normal;font-variant-position:normal;font-variant-caps:normal;font-variant-numeric:normal;font-variant-alternates:normal;font-feature-settings:normal;text-indent:0;text-align:start;text-decoration:none;text-decoration-line:none;text-decoration-style:solid;text-decoration-color:#000000;letter-spacing:normal;word-spacing:normal;text-transform:none;writing-mode:lr-tb;direction:ltr;text-orientation:mixed;dominant-baseline:auto;baseline-shift:baseline;text-anchor:start;white-space:normal;shape-padding:0;clip-rule:nonzero;display:inline;overflow:visible;visibility:visible;opacity:0.4;isolation:auto;mix-blend-mode:normal;color-interpolation:sRGB;color-interpolation-filters:linearRGB;solid-color:#000000;solid-opacity:1;vector-effect:none;fill:#000000;fill-opacity:1;fill-rule:nonzero;stroke:none;stroke-width:0.52916664;stroke-linecap:butt;stroke-linejoin:miter;stroke-miterlimit:4;stroke-dasharray:none;stroke-dashoffset:0;stroke-opacity:1;marker:none;color-rendering:auto;image-rendering:auto;shape-rendering:auto;text-rendering:auto;enable-background:accumulate"
       d="m 4.255218,0.12941044 c -0.6013273,0 -1.0748134,0.013246 -1.4644119,0.075824 -0.3896012,0.062577 -0.7084088,0.1799519 -0.9419385,0.4028775 C 1.6153406,0.83103774 1.4920841,1.1359519 1.4272953,1.5088998 1.3625063,1.881848 1.3498583,2.3358931 1.3528073,2.9126528 v 3.169439 3.1709553 c -0.00292,0.575874 0.00976,1.0296889 0.074488,1.4022359 0.064789,0.372948 0.1880453,0.677863 0.4215723,0.900788 0.2335297,0.222925 0.5523373,0.340302 0.9419385,0.402878 0.3896012,0.06258 0.8630846,0.07582 1.4644119,0.07582 h 4.4735364 c 0.6013273,0 1.0745648,-0.01323 1.4633566,-0.07582 0.388793,-0.06261 0.706626,-0.180377 0.939293,-0.403383 0.23267,-0.223005 0.355198,-0.527702 0.420517,-0.900283 0.06532,-0.372578 0.07924,-0.8257019 0.07924,-1.4022359 V 6.0820918 2.8691807 L 8.7678474,0.12941044 Z m 0,0.2588123 H 8.6558511 L 11.360682,2.976345 v 3.1057468 3.1709553 c 0,2.2884499 -0.245136,2.5229139 -2.6319276,2.5229139 H 4.255218 c -2.3867918,0 -2.6436399,-0.23449 -2.6319279,-2.5229139 V 6.0820918 2.9111365 C 1.6115917,0.62271094 1.8684262,0.38822274 4.255218,0.38822274 Z"
       id="path958"
       inkscape:connector-curvature="0"
       sodipodi:nodetypes="sccsccccccsscccscccsscccssscccs" />
    <path
       style="color:#000000;font-style:normal;font-variant:normal;font-weight:normal;font-stretch:normal;font-size:medium;line-height:normal;font-family:sans-serif;font-variant-ligatures:normal;font-variant-position:normal;font-variant-caps:normal;font-variant-numeric:normal;font-variant-alternates:normal;font-feature-settings:normal;text-indent:0;text-align:start;text-decoration:none;text-decoration-line:none;text-decoration-style:solid;text-decoration-color:#000000;letter-spacing:normal;word-spacing:normal;text-transform:none;writing-mode:lr-tb;direction:ltr;text-orientation:mixed;dominant-baseline:auto;baseline-shift:baseline;text-anchor:start;white-space:normal;shape-padding:0;clip-rule:nonzero;display:inline;overflow:visible;visibility:visible;opacity:0.4;isolation:auto;mix-blend-mode:normal;color-interpolation:sRGB;color-interpolation-filters:linearRGB;solid-color:#000000;solid-opacity:1;vector-effect:none;fill:url(#linearGradient1004);fill-opacity:1;fill-rule:nonzero;stroke:none;stroke-width:0.52916664;stroke-linecap:butt;stroke-linejoin:miter;stroke-miterlimit:4;stroke-dasharray:none;stroke-dashoffset:0;stroke-opacity:1;marker:none;color-rendering:auto;image-rendering:auto;shape-rendering:auto;text-rendering:auto;enable-background:accumulate"
       clip-path="none"
       d="m 4.255218,0.38822274 c -2.3867918,0 -2.6436263,0.2344882 -2.6319279,2.52291376 V 6.0820918 9.2530471 C 1.6115781,11.541471 1.8684262,11.775961 4.255218,11.775961 h 4.4735364 c 2.3867916,0 2.6319276,-0.234464 2.6319276,-2.5229139 V 6.0820918 2.976345 h -0.270483 v 3.1057468 3.1709553 c 0,0.567692 -0.01661,1.0017829 -0.07185,1.3168069 -0.05523,0.315026 -0.142996,0.498043 -0.269956,0.619736 -0.126959,0.121681 -0.317644,0.205919 -0.646095,0.258813 -0.3284528,0.05288 -0.7814792,0.06874 -1.3735479,0.06874 H 4.255218 c -0.5920687,0 -1.045658,-0.01584 -1.3751335,-0.06874 C 2.5506117,11.395478 2.3583847,11.311362 2.2308195,11.18959 2.1032569,11.067811 2.0155257,10.885015 1.9608665,10.570361 1.9062046,10.255708 1.8908682,9.8215111 1.8937732,9.2540581 V 9.2535401 6.0820918 2.910631 2.9101134 C 1.890879,2.3426603 1.9062154,1.9084647 1.9608665,1.5938104 2.0155284,1.2791561 2.1032569,1.0963531 2.2308195,0.97458204 2.358382,0.85281084 2.5511418,0.76868914 2.8806146,0.71576974 3.2100874,0.66287474 3.6631493,0.64703494 4.255218,0.64703494 h 4.4006331 v -0.2588122 z"
       id="path990"
       inkscape:connector-curvature="0" />
    <path
       inkscape:connector-curvature="0"
       style="color:#000000;display:inline;overflow:visible;visibility:visible;opacity:0.6;fill:#076164;fill-opacity:1;fill-rule:nonzero;stroke:none;stroke-width:0.06615189;marker:none;enable-background:accumulate"
       d="M 11.360682,3.2351572 V 2.976345 L 8.6558511,0.38822274 H 8.385368 v 1.08935456 0.041739 0.022418 c 0,1.4731541 0.2060973,1.700311 1.749214,1.6930909 z"
       id="rect4158-0-3-62-2"
       sodipodi:nodetypes="ccccccscc" />
    <path
       inkscape:connector-curvature="0"
       style="color:#000000;display:inline;overflow:visible;visibility:visible;fill:#64c3c6;fill-opacity:1;fill-rule:nonzero;stroke:none;stroke-width:0.06615189;marker:none;enable-background:accumulate"
       d="M 11.360682,2.9760137 8.6558511,0.38822214 v 0.95991956 0.041739 0.022418 c 0,1.473154 0.070953,1.5709343 1.6140699,1.5637142 z"
       id="rect4158-0-3-62"
       sodipodi:nodetypes="ccccscc" />
  </g>
</svg>
